X: 4
T: Poor But Happy At 53
R: reel
M: 4/4
L: 1/8
K: Emin
|: B, |EFGA BE E/E/E | BcAc BEGE | DEFG AFDF | A/A/A GB AGFD |
EFGA Beed | edBA B/c/B GA | BEGB AD F/G/A | GEDF E^DE :|
|: e |edBA B/c/B ef | gfed BA B/c/d | edef gbaf | gfed e3 f |
eBBA BGEG | BG A/G/F GFEG | BEGB ADFA | GEDF E3 :|


Tune 314	Setting 13086

